X: 2160
T: Şehnâzbûselik Sazsemâîsi
C: Şerafettin Şeref Çakar
O: Turkey
F: http://compmusic.upf.edu/node/140
N: sehnazbuselik--sazsemaisi--aksaksemai----seref_cakar
N: makam= sehnazbuselik
N: form= sazsemaisi
N: usul= aksaksemai = 10/8
M: 10/8
L: 1/16
K: C    
Q: 1/4=144
%%MIDI tuningsystem comma53
a4 b2c'd' c'bc'3/2b/ a^ga4z2  | ^gagf ed^c3ded c_BA4a2  | 
w:  1. HANE  |   | 
^gagf e2df eded cBc2 BAGc  | Bcdf edcB ABc3/2B/ A^GA4z2  | 
w:   |   | 
ef^ga bd'c'3bc'3/2b/ aga4z2  | ^gabc' bag3agf fee4z2  | 
w:  TESLİM  |   | 
defa gfef eded cBc2 BAGA  | Bcdf edcd cBc3/2B/ A^GA4z2  | 
w:   |   | 
ef^ga bd'c'3bc'3/2b/ aga4z2  | ^gabc' bag3agf fee4z2  | 
w:  TESLİM  |   | 
defa gfef eded cBc2 BAGA  | Bcdf edcd cBc3/2B/ A^GA4z2  | 
w:   |   | 
c4 B2c3BcB cde6  | f4 e2f3efe f^ga4z2  | \
w:  2. HANE  |   | 
c'4 b2a4^g2 a2d'6  | 
w:   | 
c'bac' ba^g3agf fee4z2  | ef^ga bd'c'3bc'3/2b/ aga4z2  | 
w:   |  TESLİM  | 
^gabc' bag3agf fee4z2  | defa gfef eded cBc2 BAGA  | 
w:   |   | 
Bcdf edcd cBc3/2B/ A^GA4z2  | ef^ga bd'c'3bc'3/2b/ aga4z2  | 
w:   |  TESLİM  | 
^gabc' bag3agf fee4z2  | defa gfef eded cBc2 BAGA  | 
w:   |   | 
Bcdf edcd cBc3/2B/ A^GA4z2  | e4 ^d2ed ef^ga gfe4z2  | 
w:   |  3. HANE  | 
d4 ^c2dc def3/2e/ dcd4z2  | c4 B2cB cded ef^ga gfed  | 
w:   |   | 
ef^ga bc'ba aggf fee4z2  | ef^ga bd'c'3bc'3/2b/ aga4z2  | 
w:   |  TESLİM  | 
^gabc' bag3agf fee4z2  | defa gfef eded cBc2 BAGA  | 
w:   |   | 
Bcdf edcd cBc3/2B/ A^GA4z2  | ef^ga bd'c'3bc'3/2b/ aga4z2  | 
w:   |  TESLİM  | 
^gabc' bag3agf fee4z2  | defa gfef eded cBc2 BAGA  | 
w:   |   | 
Bcdf edcd cBc3/2B/ A^GA4z2  | z6  | a6  | ^g6  | a6  | \
w:   |  |  4. HANE  |   |   | 
b2a2b2  | 
w:   | 
a4c'2  | b4a2  | ^g4f2  | e6  | f6  | e6  | f4a2  | \
w:   |   |   |   |   |   |   | 
^g4f2  | e4d2  | ^c4_B2  | A4^G2  | A4z2  | 
w:   |   |   |   |   | 
a6  | ^g6  | a6  | b2a2b2  | a4c'2  | b4a2  | ^g4f2  | e6  | f6  | e6  | \
w:   |   |   |   |   |   |   |   |   |   | 
f4a2  | ^g4f2  | e4d2  | 
w:   |   |   | 
^c4_B2  | A4^G2  | A4z2  | d^cd2e2  | fef2^g2  | \
w:   |   |   |   |   | 
a^gabag  | f^gfed2  | 
w:   |   | 
fef2^g2  | a^ga2b2  | a^gac'ba  | ^gagfe2  | \
w:   |   |   |   | 
d^cd2e2  | 
w:   | 
fef2^g2  | a^gabag  | f^gfed2  | fedfed  | 
w:   |   |   |   | 
ed^cedc  | d^c_BdcB  | ed^c_BA2  | d^cd2e2  | 
w:   |   |   |   | 
fef2^g2  | a^gabag  | f^gfed2  | fef2^g2  | \
w:   |   |   |   | 
a^ga2b2  | 
w:   | 
a^gac'ba  | ^gagfe2  | d^cd2e2  | fef2^g2  | \
w:   |   |   |   | 
a^gabag  | 
w:   | 
f^gfed2  | fedfed  | ed^cedc  | d^c_BdcB  | 
w:   |   |   |   | 
ed^c_BA2  | z20  | ef^ga bd'c'3bc'3/2b/ aga4z2  | \
w:   |  |  TESLİM  | 
^gabc' bag3agf fee4z2  | 
w:   | 
defa gfef eded cBc2 BAGA  | Bcdf edcd cBc3/2B/ A^GA4z2  | 
w:   |   | 
ef^ga bd'c'3bc'3/2b/ aga4z2  | ^gabc' bag3agf fee4z2  | 
w:  TESLİM  |   | 
defa gfef eded cBc2 BAGA  | Bcdf edcd cBc3/2B/ A^GA4z2  | 
w:   |   | 
|


